X:127
T:Tjänstedrängens visa.
S:Uppt. efter Elisabet Olofsdotter, Flors i Burs.
M:3/4
L:1/8
K:F
F2 F E F G|A G F G A G|F2 F E F A|
w:Čän’ ha ja gärt bäi maŋ-gä böin-dar jär, u čän’ ha ja gärt i
c4 Hc C|F2 F E F G|A G F G A G|
w:Skå-nä, u slep’ ha ja gärt pa stäu-rä här-rä-bräuk, u
F2 F E F A|c4 Hc A|:B2 G B G B|A2 F A F A|
w:där ha ja läi-tä vun-nä. En av-bru-ten rygg u äut-släi-ten krupp, u
G F E D C E|1 G2 F2 z A:|2 G2 F2 z2|]
w:skamm dä jä ti ta-lä um dä. En um dä.
